{ "compressionlevel":-1,
 "height":20,
 "infinite":false,
 "layers":[
        {
         "id":2,
         "image":"..\/..\/..\/..\/vigmykd-tiles\/dungeon-tileset-785611\/PNG\/Background\/Bright\/Background.png",
         "imageheight":540,
         "imagewidth":960,
         "name":"Image Layer 1",
         "opacity":1,
         "repeatx":true,
         "repeaty":true,
         "type":"imagelayer",
         "visible":true,
         "x":0,
         "y":0
        }, 
        {
         "data":[16, 17, 0, 49, 0, 0, 0, 0, 0, 0, 0, 49, 49, 0, 0, 0, 0, 49, 49, 0, 0, 0, 0, 0, 0, 0, 49, 0, 15, 16,
            19, 20, 0, 49, 0, 0, 0, 0, 0, 0, 0, 49, 49, 0, 0, 0, 0, 49, 49, 0, 0, 0, 0, 0, 0, 0, 49, 0, 18, 19,
            19, 20, 0, 49, 0, 0, 0, 0, 0, 0, 0, 49, 49, 0, 0, 0, 0, 49, 49, 0, 0, 0, 0, 0, 0, 0, 49, 0, 18, 19,
            19, 20, 0, 49, 0, 0, 0, 0, 0, 0, 0, 49, 49, 0, 0, 0, 0, 49, 49, 0, 0, 0, 0, 0, 0, 0, 49, 0, 18, 19,
            19, 20, 0, 49, 0, 0, 0, 0, 0, 0, 0, 49, 49, 0, 0, 0, 0, 49, 49, 0, 0, 0, 0, 0, 0, 0, 49, 0, 18, 19,
            19, 20, 0, 49, 0, 0, 0, 0, 0, 0, 0, 49, 49, 0, 0, 0, 0, 49, 49, 0, 0, 0, 0, 0, 0, 0, 49, 0, 18, 19,
            19, 20, 0, 49, 0, 0, 0, 0, 0, 0, 0, 49, 49, 0, 0, 0, 0, 49, 49, 0, 0, 0, 0, 0, 0, 0, 49, 0, 18, 19,
            19, 20, 0, 49, 0, 0, 0, 0, 0, 0, 0, 49, 49, 0, 0, 0, 0, 49, 49, 0, 0, 0, 0, 0, 0, 0, 49, 0, 18, 19,
            19, 20, 0, 49, 0, 0, 0, 0, 0, 0, 0, 49, 49, 0, 0, 0, 0, 49, 49, 0, 0, 0, 0, 0, 0, 0, 49, 0, 18, 19,
            19, 20, 0, 49, 0, 0, 0, 0, 0, 0, 0, 49, 49, 0, 0, 0, 0, 49, 49, 0, 0, 0, 0, 0, 0, 0, 49, 0, 18, 19,
            19, 20, 0, 49, 0, 0, 0, 0, 0, 0, 0, 49, 49, 0, 0, 0, 0, 49, 49, 0, 0, 0, 0, 0, 0, 0, 49, 0, 18, 19,
            19, 20, 0, 49, 0, 0, 0, 0, 0, 0, 0, 49, 49, 0, 0, 0, 0, 49, 49, 0, 0, 0, 0, 0, 0, 0, 49, 0, 18, 19,
            19, 20, 0, 49, 42, 0, 0, 0, 0, 0, 0, 37, 38, 0, 0, 0, 0, 37, 38, 0, 0, 0, 0, 0, 0, 42, 49, 0, 18, 19,
            19, 20, 0, 49, 0, 0, 0, 47, 48, 0, 0, 0, 0, 0, 0, 0, 0, 0, 0, 0, 0, 47, 48, 0, 0, 0, 49, 0, 18, 19,
            19, 20, 0, 49, 0, 0, 0, 0, 0, 0, 0, 0, 0, 0, 0, 0, 0, 0, 0, 0, 0, 0, 0, 0, 0, 0, 49, 0, 18, 19,
            19, 20, 0, 49, 0, 0, 0, 0, 0, 0, 0, 0, 43, 44, 44, 44, 44, 45, 0, 0, 0, 0, 0, 0, 0, 0, 49, 0, 18, 19,
            19, 20, 0, 50, 0, 0, 47, 48, 0, 0, 0, 0, 0, 0, 0, 0, 0, 0, 0, 0, 0, 0, 47, 48, 0, 0, 50, 0, 18, 19,
            19, 20, 0, 0, 0, 0, 0, 0, 0, 0, 42, 0, 0, 0, 0, 0, 0, 0, 0, 42, 0, 0, 0, 0, 0, 0, 0, 0, 18, 19,
            19, 20, 0, 39, 40, 0, 0, 0, 0, 0, 0, 0, 0, 15, 16, 16, 17, 0, 0, 0, 0, 0, 0, 0, 0, 39, 40, 0, 18, 19,
            19, 19, 19, 19, 19, 19, 19, 19, 19, 19, 19, 19, 19, 19, 19, 19, 19, 19, 19, 19, 19, 19, 19, 19, 19, 19, 19, 19, 19, 19],
         "height":20,
         "id":1,
         "name":"Tile Layer 1",
         "opacity":1,
         "type":"tilelayer",
         "visible":true,
         "width":30,
         "x":0,
         "y":0
        }],
 "nextlayerid":3,
 "nextobjectid":1,
 "orientation":"orthogonal",
 "renderorder":"right-down",
 "tiledversion":"1.12.2",
 "tileheight":64,
 "tilesets":[
        {
         "firstgid":1,
         "source":"..\/..\/..\/..\/vigmykd-tiles\/testmap.tsx"
        }],
 "tilewidth":64,
 "type":"map",
 "version":"1.10",
 "width":30
}